X: 167
T: Shier yue jie qi
L: 1/4
M: 4/4
K: Bb
cB/ c/f2 [I:setbarnb 1]| 
[M:3/4]f/ d/cz | 
[M:4/4]ffcf | 
cBc/ d/f | 
dcB2- | 
B3z | 
fdf3/g/ | 
fcdz | 
fcBc | 
fdcB3// c// | 
dcB2- | 
B3z |]

@@@ Tune index: 8835
